packages/kaspersky-hexa-ui-icons/src/iconsSVGs/16/Abstract.svg

<svg width="16" height="16" viewBox="0 0 16 16" fill="none" xmlns="http://www.w3.org/2000/svg">
<path fill-rule="evenodd" clip-rule="evenodd" d="M8.99551 1.9251C8.55287 1.15843 7.44628 1.15843 7.00365 1.9251L4.53889 6.19418C4.09626 6.96085 4.64955 7.91918 5.53482 7.91918H10.4643C11.3496 7.91918 11.9029 6.96085 11.4603 6.19418L8.99551 1.9251ZM5.79463 6.61918L7.99958 2.8001L10.2045 6.61918H5.79463Z" fill="black"/>
<path fill-rule="evenodd" clip-rule="evenodd" d="M1.00195 11.8707C1.00195 10.0562 2.48398 8.59125 4.29182 8.59125C6.09965 8.59125 7.58168 10.0562 7.58168 11.8707C7.58168 13.6852 6.09965 15.1501 4.29182 15.1501C2.48398 15.1501 1.00195 13.6852 1.00195 11.8707ZM4.29182 9.89125C3.19525 9.89125 2.30195 10.7808 2.30195 11.8707C2.30195 12.9606 3.19525 13.8501 4.29182 13.8501C5.38838 13.8501 6.28168 12.9606 6.28168 11.8707C6.28168 10.7808 5.38838 9.89125 4.29182 9.89125Z" fill="black"/>
<path fill-rule="evenodd" clip-rule="evenodd" d="M8.69464 10.3792C8.69464 9.46798 9.43338 8.72925 10.3446 8.72925H13.3472C14.2585 8.72925 14.9972 9.46798 14.9972 10.3792V13.3621C14.9972 14.2733 14.2585 15.0121 13.3472 15.0121H10.3446C9.43337 15.0121 8.69464 14.2733 8.69464 13.3621V10.3792ZM10.3446 10.0292C10.1513 10.0292 9.99464 10.1859 9.99464 10.3792V13.3621C9.99464 13.5554 10.1513 13.7121 10.3446 13.7121H13.3472C13.5405 13.7121 13.6972 13.5554 13.6972 13.3621V10.3792C13.6972 10.1859 13.5405 10.0292 13.3472 10.0292H10.3446Z" fill="black"/>
</svg>

<svg xmlns="http://www.w3.org/2000/svg" width="16" height="16" fill="none" viewBox="0 0 16 16"><path fill="#000" fill-rule="evenodd" d="M8.9955 1.9251c-.4426-.7667-1.5492-.7667-1.9918 0l-2.4648 4.269c-.4426.7668.1106 1.725.996 1.725h4.9294c.8853 0 1.4386-.9583.996-1.725zm-3.2009 4.694 2.205-3.819 2.2049 3.819zM1.002 11.8708c0-1.8145 1.482-3.2795 3.2898-3.2795s3.2899 1.465 3.2899 3.2795-1.482 3.2794-3.2899 3.2794-3.2899-1.4649-3.2899-3.2794m9.3427-3.1414c-.9113 0-1.65.7387-1.65 1.6499v2.9829c0 .9112.7387 1.65 1.65 1.65h3.0025c.9113 0 1.65-.7388 1.65-1.65v-2.9828c0-.9113-.7387-1.65-1.65-1.65zm-6.0529 1.162c-1.0966 0-1.9898.8895-1.9898 1.9794s.8933 1.9794 1.9898 1.9794 1.9899-.8895 1.9899-1.9794-.8933-1.9795-1.9899-1.9795m5.7029.4879a.35.35 0 0 1 .35-.3499h3.0025a.35.35 0 0 1 .35.35v2.9828a.35.35 0 0 1-.35.35h-3.0025a.35.35 0 0 1-.35-.35z"/></svg>
